src/images_karasa_jaga_svg/cmd/lc_symbolshapes.heart.svg

<svg height="24" viewBox="0 0 24 24" width="24" xmlns="http://www.w3.org/2000/svg" xmlns:xlink="http://www.w3.org/1999/xlink"><linearGradient id="a" gradientUnits="userSpaceOnUse" x1=".171677" x2="127.82832" y1="62.654022" y2="62.654022"><stop offset="0" stop-color="#7c9fcf"/><stop offset=".5" stop-color="#7c9ece"/><stop offset="1" stop-color="#7b9dcf"/></linearGradient><linearGradient id="b" gradientUnits="userSpaceOnUse" x1="63.9991" x2="63.9991" y1="128" y2=".0018"><stop offset="0" stop-color="#fff"/><stop offset=".46428573" stop-color="#fff"/><stop offset=".78125" stop-color="#f1f1f1"/><stop offset=".90625" stop-color="#eaeaea"/><stop offset="1" stop-color="#dfdfdf"/></linearGradient><g fill-rule="evenodd" transform="matrix(.171875 0 0 .171875 1.000155 .999845)"><path d="m32.167969 5.9980469c-8.439315-.1105035-16.938768 3.2667772-23.0703128 10.4335941-.020374.02327-.040558.04671-.060547.07031-6.2771347 7.588169-9.21682481 16.648814-8.83203108 26.099611.37971383 9.326032 3.78065548 18.974568 9.43945308 29.003907.00814.01735.021126.03732.029297.05469 6.8292298 14.517755 25.3880878 37.789451 51.1670688 49.468161l.804687.36914c1.494231.68507 3.212801.68507 4.707032 0l.779296-.35742c25.792645-11.67661 44.362748-34.957259 51.194258-49.479884 5.6777-10.049304 9.08834-19.715324 9.46875-29.058594.38479-9.450798-2.55489-18.511443-8.83203-26.099609-.02-.0236-.0402-.04704-.0606-.07031-6.13176-7.1671259-14.63277-10.5443295-23.072212-10.4335961-8.439444.1107334-16.832751 3.4014103-24.152344 8.8359371-.115331.0849-.227391.174158-.335937.267578l-7.341797 6.371094-7.341797-6.371094c-.108546-.09342-.220606-.182677-.335937-.267578-7.319818-5.4346928-15.714577-8.7254282-24.154297-8.8359371z" fill="url(#a)"/><path d="m32.093188 11.644616c-6.990356-.09153-13.619497 2.513447-18.704862 8.457443-10.9354395 13.219397-9.6297327 29.800743 1.369439 49.107449 5.925784 12.636557 24.036647 35.740522 48.436207 46.786612l.805128.36842.805129-.36842c24.399785-11.04604 42.512181-34.149965 48.438001-46.786612 10.99918-19.306706 12.30488-35.888052 1.36944-49.107449-10.17073-11.8879891-26.523008-10.4205468-39.56811-.735041l-11.03098 9.569889h-.02516l-11.03098-9.569889c-6.522552-4.842752-13.8729-7.630871-20.863252-7.722402z" fill="url(#b)"/></g></svg>

<?xml version="1.0" encoding="UTF-8" standalone="no"?>
<svg
   xmlns:dc="http://purl.org/dc/elements/1.1/"
   xmlns:cc="http://creativecommons.org/ns#"
   xmlns:rdf="http://www.w3.org/1999/02/22-rdf-syntax-ns#"
   xmlns:svg="http://www.w3.org/2000/svg"
   xmlns="http://www.w3.org/2000/svg"
   xmlns:xlink="http://www.w3.org/1999/xlink"
   xmlns:sodipodi="http://sodipodi.sourceforge.net/DTD/sodipodi-0.dtd"
   xmlns:inkscape="http://www.inkscape.org/namespaces/inkscape"
   height="128"
   viewBox="0 0 128 128"
   width="128"
   version="1.1"
   id="svg31"
   sodipodi:docname="lc_symbolshapes.heart.svg"
   inkscape:version="0.92.3 (unknown)"
   inkscape:export-filename="/home/rizmut/Dokumen/Rizmut/Github/libreoffice-style-karasa-jaga/build/images_karasa_jaga/cmd/lc_symbolshapes.heart.png"
   inkscape:export-xdpi="16.5"
   inkscape:export-ydpi="16.5">
  <metadata
     id="metadata37">
    <rdf:RDF>
      <cc:Work
         rdf:about="">
        <dc:format>image/svg+xml</dc:format>
        <dc:type
           rdf:resource="http://purl.org/dc/dcmitype/StillImage" />
        <dc:title></dc:title>
      </cc:Work>
    </rdf:RDF>
  </metadata>
  <defs
     id="defs35">
    <linearGradient
       id="linearGradient3369">
      <stop
         id="stop3372"
         offset="0"
         style="stop-color:#ffffff;stop-opacity:1;" />
      <stop
         style="stop-color:#ffffff;stop-opacity:1;"
         offset="0.46428573"
         id="stop3374" />
      <stop
         style="stop-color:#f1f1f1;stop-opacity:1;"
         offset="0.78125"
         id="stop3376" />
      <stop
         id="stop3378"
         offset="0.90625"
         style="stop-color:#eaeaea;stop-opacity:1;" />
      <stop
         id="stop3384"
         offset="1"
         style="stop-color:#dfdfdf;stop-opacity:1;" />
    </linearGradient>
    <linearGradient
       id="linearGradient7422">
      <stop
         style="stop-color:#7c9fcf;stop-opacity:1"
         offset="0"
         id="stop7424" />
      <stop
         id="stop5348"
         offset="0.5"
         style="stop-color:#7c9ece;stop-opacity:1" />
      <stop
         id="stop7426"
         offset="1"
         style="stop-color:#7b9dcf;stop-opacity:1" />
    </linearGradient>
    <linearGradient
       inkscape:collect="always"
       xlink:href="#linearGradient7422"
       id="linearGradient1156"
       x1="0.17167705"
       y1="62.654022"
       x2="127.82832"
       y2="62.654022"
       gradientUnits="userSpaceOnUse" />
    <linearGradient
       inkscape:collect="always"
       xlink:href="#linearGradient3369"
       id="linearGradient1164"
       x1="63.9991"
       y1="128"
       x2="63.9991"
       y2="0.0018"
       gradientUnits="userSpaceOnUse" />
  </defs>
  <sodipodi:namedview
     pagecolor="#ffffff"
     bordercolor="#666666"
     borderopacity="1"
     objecttolerance="10"
     gridtolerance="10"
     guidetolerance="10"
     inkscape:pageopacity="0"
     inkscape:pageshadow="2"
     inkscape:window-width="1366"
     inkscape:window-height="706"
     id="namedview33"
     showgrid="true"
     inkscape:zoom="1.4142136"
     inkscape:cx="14.010158"
     inkscape:cy="0.60505821"
     inkscape:window-x="-1"
     inkscape:window-y="-1"
     inkscape:window-maximized="0"
     inkscape:current-layer="svg31"
     inkscape:snap-global="true">
    <inkscape:grid
       type="xygrid"
       id="grid844"
       spacingx="5.8181"
       spacingy="5.8181"
       empspacing="1" />
  </sodipodi:namedview>
  <linearGradient
     id="a">
    <stop
       offset="0"
       stop-color="#f9f9fa"
       id="stop2" />
    <stop
       offset="1"
       stop-color="#f9f9fa"
       stop-opacity="0"
       id="stop4" />
  </linearGradient>
  <linearGradient
     id="b"
     gradientUnits="userSpaceOnUse"
     x1="42.276669"
     x2="-13.469376"
     xlink:href="#a"
     y1="50.867565"
     y2="104.97279" />
  <linearGradient
     id="c"
     gradientUnits="userSpaceOnUse"
     x1="-1.817377"
     x2="2.172436"
     xlink:href="#a"
     y1="55.003803"
     y2="116.784" />
  <g
     id="g1187">
    <path
       d="M 32.167969,5.9980469 C 23.728654,5.8875434 15.229201,9.2648241 9.0976562,16.431641 a 5.6471372,5.6471372 0 0 0 -0.060547,0.07031 C 2.7599745,24.09012 -0.17971561,33.150765 0.20507812,42.601562 0.58479195,51.927594 3.9857336,61.57613 9.6445312,71.605469 c 0.00814,0.01735 0.021126,0.03732 0.029297,0.05469 6.8292299,14.517755 25.3889879,35.090824 51.1679689,46.769534 l 0.804687,0.36914 a 5.6471372,5.6471372 0 0 0 4.707032,0 l 0.779296,-0.35742 C 92.925457,106.7648 111.49466,86.182781 118.32617,71.660156 c 5.6777,-10.049304 9.08834,-19.715324 9.46875,-29.058594 0.38479,-9.450798 -2.55489,-18.511443 -8.83203,-26.099609 a 5.6471372,5.6471372 0 0 0 -0.0606,-0.07031 C 112.77053,9.2645171 104.26952,5.8873135 95.830078,5.9980469 87.390634,6.1087803 78.997327,9.3994572 71.677734,14.833984 a 5.6471372,5.6471372 0 0 0 -0.335937,0.267578 L 64,21.472656 56.658203,15.101562 A 5.6471372,5.6471372 0 0 0 56.322266,14.833984 C 49.002448,9.3992912 40.607689,6.1085558 32.167969,5.9980469 Z"
       id="path1146"
       style="fill:url(#linearGradient1156);fill-opacity:1.0;fill-rule:evenodd;stroke:none;stroke-width:4.00656891;stroke-linecap:butt;stroke-linejoin:miter;stroke-miterlimit:4;stroke-dasharray:none;stroke-opacity:0.72941176"
       inkscape:original="M 32.09375 11.644531 C 25.103394 11.553 18.474037 14.157566 13.388672 20.101562 C 2.4532324 33.320959 3.7586408 49.902278 14.757812 69.208984 C 20.683597 81.845541 38.795753 102.25078 63.195312 113.29688 L 64 113.66602 L 64.804688 113.29688 C 89.204473 102.25084 107.31637 81.845631 113.24219 69.208984 C 124.24137 49.902278 125.54677 33.320959 114.61133 20.101562 C 104.4406 8.2135734 88.088071 9.6816817 75.042969 19.367188 L 64.011719 28.9375 L 63.988281 28.9375 L 52.957031 19.367188 C 46.434479 14.524435 39.084102 11.736062 32.09375 11.644531 z "
       inkscape:radius="5.6465726"
       sodipodi:type="inkscape:offset" />
    <path
       sodipodi:nodetypes="scccccccccccs"
       inkscape:connector-curvature="0"
       id="path2107"
       d="M 32.093188,11.644616 C 25.102832,11.553085 18.473691,14.158063 13.388326,20.102059 2.4528865,33.321456 3.7585933,49.902802 14.757765,69.209508 20.683549,81.846065 38.795312,102.2514 63.194872,113.29749 L 64,113.66591 64.805129,113.29749 C 89.204914,102.25145 107.31641,81.846155 113.24223,69.209508 124.24141,49.902802 125.54711,33.321456 114.61167,20.102059 104.44094,8.2140699 88.088662,9.6815122 75.04356,19.367018 L 64.01258,28.936907 H 63.98742 L 52.95644,19.367018 C 46.433888,14.524266 39.08354,11.736147 32.093188,11.644616 Z"
       style="fill:url(#linearGradient1164);fill-opacity:1;fill-rule:evenodd;stroke:none;stroke-width:4.00656891;stroke-linecap:butt;stroke-linejoin:miter;stroke-miterlimit:4;stroke-dasharray:none;stroke-opacity:0.72941176" />
  </g>
</svg>
